X: 3718
T: Billy's Trip To Boston
R: polka
M: 2/4
K: Dmajor
A,|:DF~E2|D/F/A B2|B/c/d AF|ED~E2|
DF E/F/E|D/F/A B2|B/c/d AF|EFD2:|
|:df e2|df ~B2|B/c/d AF|ED~E2|
df e/f/e|df ~B2|B/c/d AF|EDD2:|

